!!!COM: Vivaldi, Antonio Lucio
!!!CDT: 1678/03/04-1741/08/28
!!!OPR: 12 Sonatas for Violin and Basso continuo
!!!OTL: Sonata in B minor, op. @{OPS}, no. @{ONM} (@{SCT})
!!!OPS: 2
!!!ONM: 5
!!!OMV: 3. Giga
!!!SCT: RV 36
!!!SCA: Antonio Vivaldi: Thematisch-systematisches Verzeichnis seiner Werke (Ryom-Verzeichnis)
!!!OMD: Presto
!!!key: b
**kern	**fb	**kern
*part2	*	*part1
*staff2	*	*staff1
*ICklav	*	*ICstr
*Icemba	*	*Ivioln
*I"Basso Continuo	*	*I"Violino
*I'bc	*	*I'v
*>[A,A,B,B]	*>[A,A,B,B]	*>[A,A,B,B]
*>norep[A,B]	*>norep[A,B]	*>norep[A,B]
*>A	*>A	*>A
*clefF4	*	*clefG2
*k[f#c#]	*	*k[f#c#]
*b:	*	*b:
*M2/4	*	*M6/8
*MM255	*	*MM255
=1	=1	=1
4.BB/	.	(8b\L
.	.	8cc#y\
.	.	8dd\J)
[4.B\	.	(8dd\L
.	.	8cc#y\
.	.	8b\J)
=2	=2	=2
4.B\]	4 2	(8cc#y\L
.	.	8dd\
.	.	8ee\J)
4.A#X\	5	(8ee\L
.	.	8dd\
.	.	8cc#y\J)
=3	=3	=3
4.B\	.	(8dd\L
.	.	8ee\
.	.	8ff#y\J)
4.d\	.	(8ff#y\L
.	.	8ee\
.	.	8dd\J)
=4	=4	=4
4.c#y\	5	(8ee\L
.	.	8ff#y\
.	.	8gg\J)
4.A#X\	6	(8ff#y\L
.	.	8gg\
.	.	8ee\J)
=5	=5	=5
4.B\	.	(8dd\L
.	.	8cc#y\
.	.	8dd\J)
4.G\	6	4.b\
=6	=6	=6
4.E\	.	(8ff#y\L
.	.	8gg#X\
.	.	8aa\J)
[4.f#y\	.	(8aa\L
.	.	8gg#y\
.	.	8ff#y\J)
=7	=7	=7
4.f#y\]	4 2	(8gg#X\L
.	.	8aa\
.	.	8bb\J)
4.e#X\	5	(8bb\L
.	.	8aa\
.	.	8gg#y\J)
!!LO:LB:g=original
=8	=8	=8
4.f#y\	.	(8aa\L
.	.	8bb\
.	.	8aa\J)
4.B\	6#/	(8gg#X\L
.	.	8aa\
.	.	8bb\J)
=9	=9	=9
4.c#y\	#	4.ee#X\
4.d\	.	4ff#y\
.	.	8bb\
=10	=10	=10
4.c#y\	6 4	4.aa\
4.C#y/	5 #	4.gg#X\t
=11	=11	=11
2.F#y\	.	2.ff#y\
=12:|!|:	=12:|!|:	=12:|!|:
*>B	*>B	*>B
4.FF#y/	.	(8ff#y\L
.	.	8ggn\
.	.	8aa\J)
4.F#y\	.	(8aa\L
.	.	8gg\
.	.	8ff#y\J)
=13	=13	=13
4.E\	.	(8gg\L
.	.	8aa\
.	.	8bb\J)
4.G\	.	(8bb\L
.	.	8aa\
.	.	8gg\J)
=14	=14	=14
4.F#y\	6#/	(8aa\L
.	.	8gg\
.	.	8ff#y\J)
4.E\	.	(8gg\L
.	.	8ff#y\
.	.	8ee\J)
=15	=15	=15
4.A\	6nr	(8ffn\L
.	.	8ee\
.	.	8dd#X\J)
4.G\	6	[4.ee\
=16	=16	=16
4.A\	.	(8ee\L]
.	.	8ff#y\
.	.	8ee\J)
4.B\	#	(8b\L
.	.	8cc#y\
.	.	8dd#X\J)
=17	=17	=17
2.E\	.	2.ee\
!!LO:LB:g=original
=18	=18	=18
4.EE/	.	(8ee\L
.	.	8ffn\
.	.	8gg\J)
4.E\	.	(8gg\L
.	.	8ff\
.	.	8ee\J)
=19	=19	=19
4.D\	n	(8ffn\L
.	.	8gg\
.	.	8aa\J)
4.Fn\	.	(8aa\L
.	.	8gg\
.	.	8ff\J)
=20	=20	=20
4.E\	6	(8gg\L
.	.	8ffn\
.	.	8ee\J)
4.D\	n	(8ff\L
.	.	8ee\
.	.	8dd\J)
=21	=21	=21
4.G\	6-r	(8ee-X\L
.	.	8dd\
.	.	8cc#y\J)
4.Fn\	6	[4.dd\
=22	=22	=22
4.G\	6 5	(8dd\L]
.	.	8ee\
.	.	8dd\J)
4.A\	.	(8a\L
.	.	8b\
.	.	8cc#y\J)
=23	=23	=23
2.D\	.	2.dd\
=24	=24	=24
4.D\	.	(8ff#y\L
.	.	8ee\
.	.	8dd\J)
4.r	.	(8dd\L
.	.	8cc#y\
.	.	8b\J)
=25	=25	=25
4.E\	.	(8gg\L
.	.	8ff#y\
.	.	8ee\J)
4.r	.	(8ee\L
.	.	8dd\
.	.	8cc#y\J)
=26	=26	=26
4.F#y\	#	(8aa#X\L
.	.	8gg#X\
.	.	8ff#y\J)
4.E\	4#| 2	(8ff#y\L
.	.	8gg#y\
.	.	8aa#y\J)
=27	=27	=27
4.D\	6	[4.bb\
4.BB/	.	(8bb\L]
.	.	8aan\
.	.	8gg\J)
!!LO:LB:g=original
=28	=28	=28
4.E\	.	(8gg\L
.	.	8ff#y\
.	.	8ee\J)
4.r	.	(8ee\L
.	.	8dd\
.	.	8ccn\J)
=29	=29	=29
4.E\	6nr	(8cc\L
.	.	8dd\
.	.	8ee\J)
4.r	.	(8ee\L
.	.	8ff#y\
.	.	8gg\J)
=30	=30	=30
4.E\	6nr	(8gg\L
.	.	8ff#y\
.	.	8ee\J)
4.r	.	(8ee\L
.	.	8dd\
.	.	8ccn\J)
=31	=31	=31
4.E\	6nr	(8cc\L
.	.	8dd\
.	.	8ee\J)
4.r	.	(8ee\L
.	.	8ff#y\
.	.	8gg\J)
=32	=32	=32
4.F#y\	#	4a#X/
.	.	8f#y/
4.D\	6	4b\
.	.	8d/
=33	=33	=33
4.C#y/	7	(8e/L
.	.	8b/
.	.	8cc#y/J)
4.F#y\	7 #	4f#y/
.	.	8a#X/
=34	=34	=34
2.BB/	.	2.B/
=35	=35	=35
4.BB/	.	(8b\L
.	.	8cc#y\
.	.	8dd\J)
[4.B\	.	(8dd\L
.	.	8cc#y\
.	.	8b\J)
=36	=36	=36
4.B\]	4 2	(8cc#y\L
.	.	8dd\
.	.	8ee\J)
4.A#X\	5	(8ee\L
.	.	8dd\
.	.	8cc#y\J)
!!LO:LB:g=original
=37	=37	=37
4.B\	.	(8dd\L
.	.	8ee\
.	.	8ff#y\J)
4.d\	.	(8ff#y\L
.	.	8ee\
.	.	8dd\J)
=38	=38	=38
4.c#y\	5	(8ee\L
.	.	8ff#y\
.	.	8gg\J)
4.A#X\	7 5	(8gg\L
.	.	8ff#y\
.	.	8ee\J)
=39	=39	=39
4.B\	.	(8dd\L
.	.	8cc#y\
.	.	8b\J)
4.D\	6	(8bb\L
.	.	8aa\
.	.	8gg\J)
=40	=40	=40
4.E\	7	(8ff#y\L
.	.	8ee\
.	.	8dd\J)
4.F#y\	#	(8cc#y\L
.	.	8b\
.	.	8cc#y\J)
=41	=41	=41
2.BB/	.	8b/L
.	.	8f#y/
.	.	8b/J
.	.	8dd\L
.	.	8b\
.	.	8dd\J
=42	=42	=42
2.BB/	.	8ff#y\L
.	.	8dd\
.	.	8ff#y\J
.	.	8bb\L
.	.	8ff#y\
.	.	8bb\J
=43	=43	=43
2.BB/	.	8ff#y\L
.	.	8dd\
.	.	8ff#y\J
.	.	8dd\L
.	.	8b\
.	.	8dd\J
=44	=44	=44
2.BB/	.	8b/L
.	.	8f#y/
.	.	8b/J
.	.	8f#y/L
.	.	8d/
.	.	8f#y/J
=45	=45	=45
2.BB/;	.	2.B/;
==	==	==
*-	*-	*-
!!!SMS: RV 36 / Estienne Roger, Amsterdam [facs.]
!!!ENC: Fran Bennion; rev. 04/21 E. Correia
!!!END: 2004/11/27
!!!ONB: Converted from MuseData with musedata2hum on Sat May 11 12:07:52 2024
!!!YEM: (C) 2004, 2004 Center for Computer Assisted Research in the Humanities.
!!!system-decoration: [(s1,s2)]
!!!URL-info: https://wiki.ccarh.org/wiki/MuseData:_Antonio_Vivaldi#Op._2:_Sonate_a_violino_e_basso_per_il_cembalo
!!!URL-pdf: https://pdf.musedata.org/vivaldi-op02-no05.pdf#page=3 MuseData edition
!!!URL-pdf: http://conquest.imslp.info/files/imglnks/usimg/b/b7/IMSLP99075-PMLP183164-Vivaldi_-_Sonatas_Op2.pdf#page=20 Amsterdam: Estienne Roger, No.2, n.d.[1711].
!!!URL-youtube: https://www.youtube.com/watch?v=SiijZmW9jKM&t=5438s L'Arte dell'Arco
!!!title: @{OTL}, mov. @{OMV}
!!!filter-chint: chint -mid
!!!EEV: 2024/05/11
!!!source-file: https://bitbucket.org/musedata/vivaldi/src/master/roger/op2/no05/stage2/03/01
!!!source-file: https://bitbucket.org/musedata/vivaldi/src/master/roger/op2/no05/stage2/03/02
